;FLAVOR:Marlin
;TIME:2825
;Filament used: 3.69451m
;Layer height: 0.15
;Generated with Cura_SteamEngine 3.6.0
M140 S60
M105
M190 S60
M104 S200
M105
M109 S200
M82 ;absolute extrusion mode
G21 ;metric values
G90 ;absolute positioning
M82 ;set extruder to absolute mode
M107 ;start with the fan off
G28 X0 Y0 ;move X/Y to min endstops
G28 Z0 ;move Z to min endstops
G1 Z15.0 F9000 ;move the platform down 15mm
G92 E0 ;zero the extruded length
G1 F200 E3 ;extrude 3mm of feed stock
G92 E0 ;zero the extruded length again
G1 F9000
;Put printing message on LCD screen
M117 Printing...
G92 E0
G1 F1500 E-6.5
;LAYER_COUNT:133
;LAYER:0
M107
G0 F3600 X74.873 Y74.571 Z0.3
;TYPE:SKIRT
G1 F1500 E0
G1 F1800 X75.471 Y74.06 E0.04905
G1 X76.118 Y73.612 E0.09813
G1 X76.808 Y73.232 E0.14726
G1 X77.532 Y72.924 E0.19632
G1 X78.284 Y72.691 E0.24542
G1 X79.055 Y72.535 E0.29447
G1 X80.2 Y72.45 E0.36608
G1 X117.8 Y72.45 E2.71092
G1 X118.586 Y72.49 E2.76
G1 X119.364 Y72.609 E2.80908
G1 X120.126 Y72.807 E2.85818
G1 X120.864 Y73.081 E2.90727
G1 X121.57 Y73.429 E2.95636
G1 X122.238 Y73.846 E3.00547
G1 X122.859 Y74.329 E3.05453
G1 X123.28 Y74.72 E3.09036
G1 X125.28 Y76.72 E3.26675
G1 X125.808 Y77.304 E3.31585
G1 X126.273 Y77.939 E3.36493
G1 X126.672 Y78.617 E3.41399
G1 X127 Y79.333 E3.4631
G1 X127.254 Y80.078 E3.51219
G1 X127.431 Y80.845 E3.56128
G1 X127.529 Y81.626 E3.61037
G1 X127.55 Y82.2 E3.64619
G1 X127.55 Y119.8 E5.99103
G1 X127.51 Y120.586 E6.04011
G1 X127.391 Y121.364 E6.08919
G1 X127.193 Y122.126 E6.13829
G1 X126.919 Y122.864 E6.18738
G1 X126.571 Y123.57 E6.23647
G1 X126.154 Y124.238 E6.28558
G1 X125.671 Y124.859 E6.33464
G1 X125.127 Y125.429 E6.38378
G1 X124.529 Y125.94 E6.43283
G1 X123.882 Y126.388 E6.48191
G1 X123.192 Y126.768 E6.53103
G1 X122.468 Y127.076 E6.5801
G1 X121.716 Y127.309 E6.62919
G1 X120.945 Y127.465 E6.67825
G1 X119.8 Y127.55 E6.74985
G1 X80.2 Y127.55 E9.21942
G1 X79.414 Y127.51 E9.2685
G1 X78.636 Y127.391 E9.31758
G1 X77.874 Y127.193 E9.36668
G1 X77.136 Y126.919 E9.41577
G1 X76.43 Y126.571 E9.46486
G1 X75.762 Y126.154 E9.51397
G1 X75.141 Y125.671 E9.56303
G1 X74.571 Y125.127 E9.61217
G1 X74.06 Y124.529 E9.66122
G1 X73.612 Y123.882 E9.7103
G1 X73.232 Y123.192 E9.75942
G1 X72.924 Y122.468 E9.80849
G1 X72.691 Y121.716 E9.85758
G1 X72.535 Y120.945 E9.90664
G1 X72.45 Y119.8 E9.97824
G1 X72.45 Y80.2 E12.44781
G1 X72.49 Y79.414 E12.49689
G1 X72.609 Y78.636 E12.54597
G1 X72.807 Y77.874 E12.59507
G1 X73.081 Y77.136 E12.64416
G1 X73.429 Y76.43 E12.69325
G1 X73.846 Y75.762 E12.74236
G1 X74.329 Y75.141 E12.79142
G1 X74.873 Y74.571 E12.84056
G0 F3600 X75.363 Y74.799
G1 F1800 X75.956 Y74.322 E12.88802
G1 X76.596 Y73.909 E12.93552
G1 X77.276 Y73.566 E12.98301
G1 X77.988 Y73.296 E13.0305
G1 X78.724 Y73.102 E13.07797
G1 X79.476 Y72.986 E13.12542
G1 X80.2 Y72.95 E13.17063
G1 X117.8 Y72.95 E15.51547
G1 X118.56 Y72.99 E15.56293
G1 X119.312 Y73.109 E15.61041
G1 X120.047 Y73.307 E15.65788
G1 X120.758 Y73.581 E15.7054
G1 X121.436 Y73.927 E15.75287
G1 X122.073 Y74.343 E15.80031
G1 X122.927 Y75.073 E15.87038
G1 X124.927 Y77.073 E16.04676
G1 X125.436 Y77.639 E16.09424
G1 X125.883 Y78.255 E16.1417
G1 X126.263 Y78.915 E16.18919
G1 X126.572 Y79.611 E16.23668
G1 X126.806 Y80.335 E16.28413
G1 X126.963 Y81.08 E16.33161
G1 X127.05 Y82.2 E16.40167
G1 X127.05 Y119.8 E18.74651
G1 X127.01 Y120.56 E18.79397
G1 X126.891 Y121.312 E18.84145
G1 X126.693 Y122.047 E18.88892
G1 X126.419 Y122.758 E18.93644
G1 X126.073 Y123.436 E18.98391
G1 X125.657 Y124.073 E19.03136
G1 X125.176 Y124.664 E19.07888
G1 X124.637 Y125.201 E19.12633
G1 X124.044 Y125.678 E19.17379
G1 X123.404 Y126.091 E19.22129
G1 X122.724 Y126.434 E19.26878
G1 X122.012 Y126.704 E19.31627
G1 X121.276 Y126.898 E19.36374
G1 X120.524 Y127.014 E19.41119
G1 X119.8 Y127.05 E19.4564
G1 X80.2 Y127.05 E21.92596
G1 X79.44 Y127.01 E21.97342
G1 X78.688 Y126.891 E22.0209
G1 X77.953 Y126.693 E22.06837
G1 X77.242 Y126.419 E22.11589
G1 X76.564 Y126.073 E22.16336
G1 X75.927 Y125.657 E22.21081
G1 X75.336 Y125.176 E22.25833
G1 X74.799 Y124.637 E22.30578
G1 X74.322 Y124.044 E22.35324
G1 X73.909 Y123.404 E22.40074
G1 X73.566 Y122.724 E22.44823
G1 X73.296 Y122.012 E22.49572
G1 X73.102 Y121.276 E22.54319
G1 X72.986 Y120.524 E22.59064
G1 X72.95 Y119.8 E22.63585
G1 X72.95 Y80.2 E25.10541
G1 X72.99 Y79.44 E25.15287
G1 X73.109 Y78.688 E25.20035
G1 X73.307 Y77.953 E25.24782
G1 X73.581 Y77.242 E25.29534
G1 X73.927 Y76.564 E25.34281
G1 X74.343 Y75.927 E25.39026
G1 X74.824 Y75.336 E25.43778
G1 X75.363 Y74.799 E25.48523
G0 F3600 X75.317 Y75.539
G1 F1800 X75.853 Y75.036 E25.53107
G1 X76.44 Y74.594 E25.57689
G1 X77.071 Y74.219 E25.62267
G1 X77.739 Y73.914 E25.66846
G1 X78.437 Y73.684 E25.71429
G1 X79.156 Y73.531 E25.76013
G1 X80.2 Y73.45 E25.82544
G1 X117.8 Y73.45 E28.17028
G1 X118.533 Y73.49 E28.21606
G1 X119.258 Y73.609 E28.26187
G1 X119.966 Y73.807 E28.30772
G1 X120.648 Y74.08 E28.35353
G1 X121.296 Y74.426 E28.39934
G1 X121.903 Y74.84 E28.44517
G1 X122.573 Y75.427 E28.50072
G1 X124.573 Y77.427 E28.6771
G1 X125.063 Y77.974 E28.7229
G1 X125.491 Y78.571 E28.76871
G1 X125.852 Y79.211 E28.81454
G1 X126.141 Y79.886 E28.86033
G1 X126.355 Y80.589 E28.90615
G1 X126.491 Y81.311 E28.95197
G1 X126.55 Y82.2 E29.00753
G1 X126.55 Y119.8 E31.35237
G1 X126.51 Y120.533 E31.39815
G1 X126.391 Y121.258 E31.44397
G1 X126.193 Y121.966 E31.48982
G1 X125.92 Y122.648 E31.53563
G1 X125.574 Y123.296 E31.58144
G1 X125.16 Y123.903 E31.62726
G1 X124.683 Y124.461 E31.67304
G1 X124.147 Y124.964 E31.71888
G1 X123.56 Y125.406 E31.76471
G1 X122.929 Y125.781 E31.81048
G1 X122.261 Y126.086 E31.85628
G1 X121.563 Y126.316 E31.90211
G1 X120.844 Y126.469 E31.94795
G1 X119.8 Y126.55 E32.01325
G1 X80.2 Y126.55 E34.48282
G1 X79.467 Y126.51 E34.5286
G1 X78.742 Y126.391 E34.57442
G1 X78.034 Y126.193 E34.62026
G1 X77.352 Y125.92 E34.66608
G1 X76.704 Y125.574 E34.71189
G1 X76.097 Y125.16 E34.75771
G1 X75.539 Y124.683 E34.80349
G1 X75.036 Y124.147 E34.84933
G1 X74.594 Y123.56 E34.89515
G1 X74.219 Y122.929 E34.94093
G1 X73.914 Y122.261 E34.98672
G1 X73.684 Y121.563 E35.03255
G1 X73.531 Y120.844 E35.0784
G1 X73.45 Y119.8 E35.1437
G1 X73.45 Y80.2 E37.61326
G1 X73.49 Y79.467 E37.65904
G1 X73.609 Y78.742 E37.70486
G1 X73.807 Y78.034 E37.75071
G1 X74.08 Y77.352 E37.79652
G1 X74.426 Y76.704 E37.84233
G1 X74.84 Y76.097 E37.88815
G1 X75.317 Y75.539 E37.93393
G0 F3600 X75.81 Y75.751
G1 F1800 X76.341 Y75.284 E37.97803
G1 X76.92 Y74.88 E38.02206
G1 X77.542 Y74.543 E38.06618
G1 X78.198 Y74.279 E38.11028
G1 X78.879 Y74.091 E38.15433
G1 X79.577 Y73.981 E38.1984
G1 X80.2 Y73.95 E38.2373
G1 X117.8 Y73.95 E40.58214
G1 X118.506 Y73.99 E40.62624
G1 X119.202 Y74.109 E40.67027
G1 X119.881 Y74.307 E40.71438
G1 X120.533 Y74.579 E40.75844
G1 X121.15 Y74.924 E40.80252
G1 X121.725 Y75.336 E40.84664
G1 X122.219 Y75.781 E40.8881
G1 X124.219 Y77.781 E41.06449
G1 X124.69 Y78.308 E41.10857
G1 X125.098 Y78.885 E41.15264
G1 X125.439 Y79.504 E41.19671
G1 X125.707 Y80.158 E41.24079
G1 X125.9 Y80.838 E41.28487
G1 X126.015 Y81.536 E41.32898
G1 X126.05 Y82.2 E41.37045
G1 X126.05 Y119.8 E43.71529
G1 X126.01 Y120.506 E43.75939
G1 X125.891 Y121.202 E43.80342
G1 X125.693 Y121.881 E43.84753
G1 X125.421 Y122.533 E43.89159
G1 X125.076 Y123.15 E43.93567
G1 X124.664 Y123.725 E43.97979
G1 X124.19 Y124.249 E44.02385
G1 X123.659 Y124.716 E44.06795
G1 X123.08 Y125.12 E44.11198
G1 X122.458 Y125.457 E44.1561
G1 X121.802 Y125.721 E44.20019
G1 X121.121 Y125.909 E44.24425
G1 X120.423 Y126.019 E44.28832
G1 X119.8 Y126.05 E44.32722
G1 X80.2 Y126.05 E46.79678
G1 X79.494 Y126.01 E46.84088
G1 X78.798 Y125.891 E46.88492
G1 X78.119 Y125.693 E46.92902
G1 X77.467 Y125.421 E46.97308
G1 X76.85 Y125.076 E47.01717
G1 X76.275 Y124.664 E47.06128
G1 X75.751 Y124.19 E47.10534
G1 X75.284 Y123.659 E47.14944
G1 X74.88 Y123.08 E47.19347
G1 X74.543 Y122.458 E47.23759
G1 X74.279 Y121.802 E47.28169
G1 X74.091 Y121.121 E47.32574
G1 X73.981 Y120.423 E47.36981
G1 X73.95 Y119.8 E47.40871
G1 X73.95 Y80.2 E49.87828
G1 X73.99 Y79.494 E49.92237
G1 X74.109 Y78.798 E49.96641
G1 X74.307 Y78.119 E50.01052
G1 X74.579 Y77.467 E50.05457
G1 X74.924 Y76.85 E50.09866
G1 X75.336 Y76.275 E50.14277
G1 X75.81 Y75.751 E50.18684
G0 F3600 X76.302 Y75.973
G1 F1800 X76.826 Y75.544 E50.22907
G1 X77.398 Y75.179 E50.27138
G1 X78.008 Y74.884 E50.31364
G1 X78.649 Y74.663 E50.35592
G1 X79.311 Y74.519 E50.39817
G1 X80.2 Y74.45 E50.45378
G1 X117.8 Y74.45 E52.79862
G1 X118.477 Y74.49 E52.84091
G1 X119.144 Y74.609 E52.88317
G1 X119.793 Y74.806 E52.92546
G1 X120.414 Y75.078 E52.96774
G1 X120.998 Y75.422 E53.01001
G1 X121.539 Y75.831 E53.05231
G1 X121.866 Y76.134 E53.08011
G1 X123.866 Y78.134 E53.2565
G1 X124.316 Y78.641 E53.29877
G1 X124.704 Y79.197 E53.34105
G1 X125.023 Y79.795 E53.38332
G1 X125.27 Y80.427 E53.42564
G1 X125.44 Y81.083 E53.4679
G1 X125.533 Y81.754 E53.51014
G1 X125.55 Y82.2 E53.53798
G1 X125.55 Y119.8 E55.88282
G1 X125.51 Y120.477 E55.92511
G1 X125.391 Y121.144 E55.96736
G1 X125.194 Y121.793 E56.00966
G1 X124.922 Y122.414 E56.05194
G1 X124.578 Y122.998 E56.09421
G1 X124.169 Y123.539 E56.1365
G1 X123.698 Y124.027 E56.1788
G1 X123.174 Y124.456 E56.22103
G1 X122.602 Y124.821 E56.26335
G1 X121.992 Y125.116 E56.3056
G1 X121.351 Y125.337 E56.34789
G1 X120.689 Y125.481 E56.39014
G1 X119.8 Y125.55 E56.44574
G1 X80.2 Y125.55 E58.91531
G1 X79.523 Y125.51 E58.9576
G1 X78.856 Y125.391 E58.99985
G1 X78.207 Y125.194 E59.04215
G1 X77.586 Y124.922 E59.08443
G1 X77.002 Y124.578 E59.1267
G1 X76.461 Y124.169 E59.16899
G1 X75.973 Y123.698 E59.21129
G1 X75.544 Y123.174 E59.25352
G1 X75.179 Y122.602 E59.29584
G1 X74.884 Y121.992 E59.33809
G1 X74.663 Y121.351 E59.38038
G1 X74.519 Y120.689 E59.42263
G1 X74.45 Y119.8 E59.47823
G1 X74.45 Y80.2 E61.9478
G1 X74.49 Y79.523 E61.99009
G1 X74.609 Y78.856 E62.03235
G1 X74.806 Y78.207 E62.07464
G1 X75.078 Y77.586 E62.11692
G1 X75.422 Y77.002 E62.15919
G1 X75.831 Y76.461 E62.20148
G1 X76.302 Y75.973 E62.24378
G0 F3600 X76.792 Y76.207
G1 F1800 X77.309 Y75.818 E62.28413
G1 X77.871 Y75.495 E62.32455
G1 X78.468 Y75.244 E62.36494
G1 X79.092 Y75.068 E62.40537
G1 X79.732 Y74.971 E62.44574
G1 X80.2 Y74.95 E62.47496
G1 X117.8 Y74.95 E64.8198
G1 X118.447 Y74.99 E64.86022
G1 X119.083 Y75.109 E64.90057
G1 X119.7 Y75.306 E64.94096
G1 X120.289 Y75.577 E64.9814
G1 X120.839 Y75.919 E65.02179
G1 X121.512 Y76.488 E65.07675
G1 X123.512 Y78.488 E65.25314
G1 X123.941 Y78.973 E65.29352
G1 X124.307 Y79.508 E65.33394
G1 X124.604 Y80.083 E65.3743
G1 X124.828 Y80.691 E65.41471
G1 X124.976 Y81.322 E65.45513
G1 X125.05 Y82.2 E65.51008
G1 X125.05 Y119.8 E67.85491
G1 X125.01 Y120.447 E67.89534
G1 X124.891 Y121.083 E67.93569
G1 X124.694 Y121.7 E67.97608
G1 X124.423 Y122.289 E68.01652
G1 X124.081 Y122.839 E68.05691
G1 X123.674 Y123.343 E68.09731
G1 X123.208 Y123.793 E68.1377
G1 X122.691 Y124.182 E68.17805
G1 X122.129 Y124.505 E68.21848
G1 X121.532 Y124.756 E68.25886
G1 X120.908 Y124.932 E68.2993
G1 X120.268 Y125.029 E68.33967
G1 X119.8 Y125.05 E68.36888
G1 X80.2 Y125.05 E70.83845
G1 X79.553 Y125.01 E70.87887
G1 X78.917 Y124.891 E70.91922
G1 X78.3 Y124.694 E70.95961
G1 X77.711 Y124.423 E71.00005
G1 X77.161 Y124.081 E71.04044
G1 X76.657 Y123.674 E71.08084
G1 X76.207 Y123.208 E71.12124
G1 X75.818 Y122.691 E71.16158
G1 X75.495 Y122.129 E71.20201
G1 X75.244 Y121.532 E71.2424
G1 X75.068 Y120.908 E71.28283
G1 X74.971 Y120.268 E71.3232
G1 X74.95 Y119.8 E71.35241
G1 X74.95 Y80.2 E73.82198
G1 X74.99 Y79.553 E73.8624
G1 X75.109 Y78.917 E73.90275
G1 X75.306 Y78.3 E73.94314
G1 X75.577 Y77.711 E73.98358
G1 X75.919 Y77.161 E74.02397
G1 X76.326 Y76.657 E74.06437
G1 X76.792 Y76.207 E74.10477
G0 F3600 X76.819 Y76.863
G1 F1800 X77.279 Y76.454 E74.14315
G1 X77.789 Y76.107 E74.18162
G1 X78.339 Y75.83 E74.22003
G1 X78.92 Y75.626 E74.25843
G1 X79.523 Y75.498 E74.29687
G1 X80.2 Y75.45 E74.33919
G1 X117.8 Y75.45 E76.68403
G1 X118.415 Y75.49 E76.72247
G1 X119.019 Y75.609 E76.76086
G1 X119.603 Y75.806 E76.7993
G1 X120.157 Y76.076 E76.83773
G1 X120.671 Y76.416 E76.87616
G1 X121.159 Y76.841 E76.91652
G1 X123.159 Y78.841 E77.09291
G1 X123.565 Y79.304 E77.13131
G1 X123.908 Y79.816 E77.16974
G1 X124.182 Y80.368 E77.20817
G1 X124.383 Y80.95 E77.24657
G1 X124.506 Y81.554 E77.28501
G1 X124.55 Y82.2 E77.32539
G1 X124.55 Y119.8 E79.67023
G1 X124.51 Y120.415 E79.70867
G1 X124.391 Y121.019 E79.74706
G1 X124.194 Y121.603 E79.78549
G1 X123.924 Y122.157 E79.82393
G1 X123.584 Y122.671 E79.86236
G1 X123.181 Y123.137 E79.90078
G1 X122.721 Y123.546 E79.93917
G1 X122.211 Y123.893 E79.97764
G1 X121.661 Y124.17 E80.01604
G1 X121.08 Y124.374 E80.05444
G1 X120.477 Y124.502 E80.09288
G1 X119.8 Y124.55 E80.13521
G1 X80.2 Y124.55 E82.60477
G1 X79.585 Y124.51 E82.64321
G1 X78.981 Y124.391 E82.6816
G1 X78.397 Y124.194 E82.72004
G1 X77.843 Y123.924 E82.75847
G1 X77.329 Y123.584 E82.7969
G1 X76.863 Y123.181 E82.83532
G1 X76.454 Y122.721 E82.87371
G1 X76.107 Y122.211 E82.91218
G1 X75.83 Y121.661 E82.95058
G1 X75.626 Y121.08 E82.98898
G1 X75.498 Y120.477 E83.02743
G1 X75.45 Y119.8 E83.06975
G1 X75.45 Y80.2 E85.53932
G1 X75.49 Y79.585 E85.57775
G1 X75.609 Y78.981 E85.61614
G1 X75.806 Y78.397 E85.65458
G1 X76.076 Y77.843 E85.69301
G1 X76.416 Y77.329 E85.73144
G1 X76.819 Y76.863 E85.76987
G0 F3600 X77.311 Y77.083
G1 F1800 X77.765 Y76.717 E85.80623
G1 X78.264 Y76.417 E85.84254
G1 X78.8 Y76.187 E85.87892
G1 X79.362 Y76.033 E85.91526
G1 X80.2 Y75.95 E85.96777
G1 X117.8 Y75.95 E88.31261
G1 X118.381 Y75.99 E88.34893
G1 X118.952 Y76.109 E88.3853
G1 X119.501 Y76.305 E88.42166
G1 X120.017 Y76.574 E88.45795
G1 X120.493 Y76.912 E88.49436
G1 X120.805 Y77.195 E88.52062
G1 X122.805 Y79.195 E88.69701
G1 X123.188 Y79.634 E88.73334
G1 X123.507 Y80.122 E88.7697
G1 X123.757 Y80.648 E88.80602
G1 X123.932 Y81.204 E88.84237
G1 X124.029 Y81.779 E88.87874
G1 X124.05 Y82.2 E88.90503
G1 X124.05 Y119.8 E91.24986
G1 X124.01 Y120.381 E91.28618
G1 X123.891 Y120.952 E91.32256
G1 X123.695 Y121.501 E91.35891
G1 X123.426 Y122.017 E91.3952
G1 X123.088 Y122.493 E91.43161
G1 X122.689 Y122.917 E91.46792
G1 X122.235 Y123.283 E91.50428
G1 X121.736 Y123.583 E91.54059
G1 X121.2 Y123.813 E91.57697
G1 X120.638 Y123.967 E91.61331
G1 X119.8 Y124.05 E91.66582
G1 X80.2 Y124.05 E94.13539
G1 X79.619 Y124.01 E94.17171
G1 X79.048 Y123.891 E94.20808
G1 X78.499 Y123.695 E94.24443
G1 X77.983 Y123.426 E94.28072
G1 X77.507 Y123.088 E94.31713
G1 X77.083 Y122.689 E94.35344
G1 X76.717 Y122.235 E94.38981
G1 X76.417 Y121.736 E94.42612
G1 X76.187 Y121.2 E94.46249
G1 X76.033 Y120.638 E94.49883
G1 X75.95 Y119.8 E94.55135
G1 X75.95 Y80.2 E97.02091
G1 X75.99 Y79.619 E97.05723
G1 X76.109 Y79.048 E97.0936
G1 X76.305 Y78.499 E97.12996
G1 X76.574 Y77.983 E97.16625
G1 X76.912 Y77.507 E97.20265
G1 X77.311 Y77.083 E97.23896
G0 F3600 X77.801 Y77.318
G1 F1800 X78.246 Y76.999 E97.27311
G1 X78.733 Y76.749 E97.30725
G1 X79.251 Y76.572 E97.34138
G1 X79.789 Y76.473 E97.3755
G1 X80.2 Y76.45 E97.40117
G1 X117.8 Y76.45 E99.74601
G1 X118.346 Y76.49 E99.78015
G1 X118.88 Y76.609 E99.81427
G1 X119.391 Y76.804 E99.84838
G1 X119.869 Y77.072 E99.88255
G1 X120.452 Y77.548 E99.92949
G1 X122.452 Y79.548 E100.10588
G1 X122.809 Y79.963 E100.14002
G1 X123.103 Y80.425 E100.17417
G1 X123.326 Y80.924 E100.20825
G1 X123.474 Y81.451 E100.24239
G1 X123.55 Y82.2 E100.28934
G1 X123.55 Y119.8 E102.63418
G1 X123.51 Y120.346 E102.66832
G1 X123.391 Y120.88 E102.70244
G1 X123.196 Y121.391 E102.73655
G1 X122.928 Y121.869 E102.77072
G1 X122.593 Y122.302 E102.80486
G1 X122.199 Y122.682 E102.839
G1 X121.754 Y123.001 E102.87315
G1 X121.267 Y123.251 E102.90729
G1 X120.749 Y123.428 E102.94142
G1 X120.211 Y123.527 E102.97554
